X:304
T: ACH WIE IST S MOEGLICH DANN
N: B0356
O: Europa, Mitteleuropa, Deutschland, Baden
R: Liebes - Lied, Liebes - Lust, Treue
M: 3/4
L: 1/8
K: D
 | A3BAG | GFF2F2 |
F3GFE | EDD2D2 |
E2E2E2 | F3GA2 |
A2BAGF | F2E2z2 |
A2A2A2 | B3cdB |
A2ABAG | FGFGF2 |
D2F2A2 | AGEGF2 |
A2BGEC | E2D2z2

@@@ Tune index: 2107
